Flat-Remix-Dark/apps/scalable/accerciser.svg

<svg xmlns="http://www.w3.org/2000/svg" width="384pt" height="384pt" version="1.1" viewBox="0 0 384 384">
 <path d="M 65.620584,175.1082 H 320.2427 c 9.45757,0 17.12207,5.85519 17.12207,13.07368 v 7.59718 c 0,7.21849 -7.6645,13.07368 -17.12207,13.07368 H 65.620584 c -9.457578,0 -17.122069,-5.85519 -17.122069,-13.07368 v -7.59718 c 0,-7.21849 7.664491,-13.07368 17.122069,-13.07368 z m 0,0" style="fill:#5b739d"/>
 <path style="opacity:0.3" d="M 64.664062 251.03906 L 64.664062 261.03906 C 64.664063 270.66372 74.884035 278.4707 87.494141 278.4707 L 426.99023 278.4707 C 439.60031 278.4707 449.82031 270.66372 449.82031 261.03906 L 449.82031 251.03906 C 449.82031 260.66372 439.60031 268.4707 426.99023 268.4707 L 87.494141 268.4707 C 74.884034 268.4707 64.664063 260.66372 64.664062 251.03906 z" transform="scale(0.75)"/>
 <path d="m 309.43555,110.14845 c -9.68359,0 -17.53516,7.84765 -17.53516,17.53125 v 128.57812 c 0,9.68359 7.85157,17.53125 17.53516,17.53125 9.67969,0 17.53125,-7.84766 17.53125,-17.53125 V 127.6797 c 0,-9.6836 -7.85156,-17.53125 -17.53125,-17.53125 z m 0,0" style="fill:#dd4747"/>
 <path d="m 76.427734,110.14845 c 9.683594,0 17.535156,7.84765 17.535156,17.53125 v 128.57812 c 0,9.68359 -7.851562,17.53125 -17.535156,17.53125 -9.679688,0 -17.53125,-7.84766 -17.53125,-17.53125 V 127.6797 c 0,-9.6836 7.851562,-17.53125 17.53125,-17.53125 z m 0,0" style="fill:#dd4747"/>
 <path d="m 120.98614,78.738285 c 14.92661,0 27.02325,10.863281 27.02325,24.265625 v 177.95313 c 0,13.40234 -12.09664,24.26562 -27.02325,24.26562 -14.9266,0 -27.02325,-10.86328 -27.02325,-24.26562 V 103.00391 c 0,-13.402344 12.09665,-24.265625 27.02325,-24.265625 z m 0,0" style="fill:#d41919"/>
 <path d="m 264.87713,78.738285 c 14.92661,0 27.02326,10.863281 27.02326,24.265625 v 177.95313 c 0,13.40234 -12.09665,24.26562 -27.02326,24.26562 -14.92661,0 -27.02326,-10.86328 -27.02326,-24.26562 V 103.00391 c 0,-13.402344 12.09665,-24.265625 27.02326,-24.265625 z m 0,0" style="fill:#d41919"/>
 <path style="opacity:0.3" d="M 78.529297 331.67773 L 78.529297 341.67773 C 78.529297 354.5892 88.998046 365.05273 101.9043 365.05273 C 114.81575 365.05273 125.28516 354.5892 125.28516 341.67773 L 125.28516 331.67773 C 125.28516 344.5892 114.81575 355.05273 101.9043 355.05273 C 88.998048 355.05273 78.529297 344.5892 78.529297 331.67773 z M 389.20117 331.67773 L 389.20117 341.67773 C 389.20117 354.5892 399.66862 365.05273 412.58008 365.05273 C 425.48633 365.05273 435.95508 354.5892 435.95508 341.67773 L 435.95508 331.67773 C 435.95508 344.5892 425.48633 355.05273 412.58008 355.05273 C 399.66862 355.05273 389.20117 344.5892 389.20117 331.67773 z M 125.28516 364.60938 L 125.28516 374.60938 C 125.28516 392.47916 141.41232 406.96484 161.31445 406.96484 C 181.2166 406.96484 197.34766 392.47917 197.34766 374.60938 L 197.34766 364.60938 C 197.34766 382.47916 181.21661 396.96484 161.31445 396.96484 C 141.41232 396.96484 125.28516 382.47916 125.28516 364.60938 z M 317.13672 364.60938 L 317.13672 374.60938 C 317.13672 392.47916 333.26778 406.96484 353.16992 406.96484 C 373.07206 406.96484 389.20117 392.47917 389.20117 374.60938 L 389.20117 364.60938 C 389.20117 382.47916 373.07206 396.96484 353.16992 396.96484 C 333.26778 396.96484 317.13672 382.47916 317.13672 364.60938 z" transform="scale(0.75)"/>
 <path style="fill:#ffffff;opacity:0.3" d="M 161.31641 104.98438 C 141.41427 104.98438 125.28516 119.47004 125.28516 137.33984 L 125.28516 147.33984 C 125.28516 129.47005 141.41427 114.98438 161.31641 114.98438 C 181.21855 114.98437 197.34766 129.47005 197.34766 147.33984 L 197.34766 137.33984 C 197.34766 119.47004 181.21855 104.98437 161.31641 104.98438 z M 353.16992 104.98438 C 333.26778 104.98438 317.13672 119.47004 317.13672 137.33984 L 317.13672 147.33984 C 317.13672 129.47005 333.26778 114.98438 353.16992 114.98438 C 373.07206 114.98437 389.20117 129.47005 389.20117 147.33984 L 389.20117 137.33984 C 389.20117 119.47004 373.07206 104.98437 353.16992 104.98438 z M 101.9043 146.86523 C 88.998057 146.86523 78.529297 157.32877 78.529297 170.24023 L 78.529297 180.24023 C 78.529297 167.32877 88.998057 156.86523 101.9043 156.86523 C 114.81575 156.86523 125.28516 167.32877 125.28516 180.24023 L 125.28516 170.24023 C 125.28516 157.32877 114.81575 146.86523 101.9043 146.86523 z M 412.58008 146.86523 C 399.66862 146.86523 389.20117 157.32877 389.20117 170.24023 L 389.20117 180.24023 C 389.20117 167.32877 399.66862 156.86523 412.58008 156.86523 C 425.48633 156.86523 435.95508 167.32877 435.95508 180.24023 L 435.95508 170.24023 C 435.95508 157.32877 425.48633 146.86523 412.58008 146.86523 z" transform="scale(0.75)"/>
</svg>

<svg width="512" height="512" version="1.1" viewBox="0 0 384 384" xmlns="http://www.w3.org/2000/svg"><path d="m65.621 175.11h254.62c9.4576 0 17.122 5.8552 17.122 13.074v7.5972c0 7.2185-7.6645 13.074-17.122 13.074h-254.62c-9.4576 0-17.122-5.8552-17.122-13.074v-7.5972c0-7.2185 7.6645-13.074 17.122-13.074z" fill="#5b739d"/><path transform="scale(.75)" d="m64.664 251.04v10c1e-6 9.6247 10.22 17.432 22.83 17.432h339.5c12.61 0 22.83-7.807 22.83-17.432v-10c0 9.6247-10.22 17.432-22.83 17.432h-339.5c-12.61 0-22.83-7.807-22.83-17.432z" opacity=".3"/><path d="m309.44 110.15c-9.6836 0-17.535 7.8476-17.535 17.531v128.58c0 9.6836 7.8516 17.531 17.535 17.531 9.6797 0 17.531-7.8477 17.531-17.531v-128.58c0-9.6836-7.8516-17.531-17.531-17.531z" fill="#dd4747"/><path d="m76.428 110.15c9.6836 0 17.535 7.8476 17.535 17.531v128.58c0 9.6836-7.8516 17.531-17.535 17.531-9.6797 0-17.531-7.8477-17.531-17.531v-128.58c0-9.6836 7.8516-17.531 17.531-17.531z" fill="#dd4747"/><path d="m120.99 78.738c14.927 0 27.023 10.863 27.023 24.266v177.95c0 13.402-12.097 24.266-27.023 24.266-14.927 0-27.023-10.863-27.023-24.266v-177.95c0-13.402 12.097-24.266 27.023-24.266z" fill="#d41919"/><path d="m264.88 78.738c14.927 0 27.023 10.863 27.023 24.266v177.95c0 13.402-12.097 24.266-27.023 24.266s-27.023-10.863-27.023-24.266v-177.95c0-13.402 12.097-24.266 27.023-24.266z" fill="#d41919"/><path transform="scale(.75)" d="m78.529 331.68v10c0 12.911 10.469 23.375 23.375 23.375 12.911 0 23.381-10.464 23.381-23.375v-10c0 12.911-10.469 23.375-23.381 23.375-12.906 0-23.375-10.464-23.375-23.375zm310.67 0v10c0 12.911 10.467 23.375 23.379 23.375 12.906 0 23.375-10.464 23.375-23.375v-10c0 12.911-10.469 23.375-23.375 23.375-12.911 0-23.379-10.464-23.379-23.375zm-263.92 32.932v10c0 17.87 16.127 32.355 36.029 32.355 19.902 0 36.033-14.486 36.033-32.355v-10c0 17.87-16.131 32.355-36.033 32.355-19.902 0-36.029-14.486-36.029-32.355zm191.85 0v10c0 17.87 16.131 32.355 36.033 32.355s36.031-14.486 36.031-32.355v-10c0 17.87-16.129 32.355-36.031 32.355s-36.033-14.486-36.033-32.355z" opacity=".3"/><path transform="scale(.75)" d="m161.32 104.98c-19.902 0-36.031 14.486-36.031 32.355v10c0-17.87 16.129-32.355 36.031-32.355 19.902-1e-5 36.031 14.486 36.031 32.355v-10c0-17.87-16.129-32.355-36.031-32.355zm191.85 0c-19.902 0-36.033 14.486-36.033 32.355v10c0-17.87 16.131-32.355 36.033-32.355 19.902-1e-5 36.031 14.486 36.031 32.355v-10c0-17.87-16.129-32.355-36.031-32.355zm-251.27 41.881c-12.906 0-23.375 10.464-23.375 23.375v10c0-12.911 10.469-23.375 23.375-23.375 12.911 0 23.381 10.464 23.381 23.375v-10c0-12.911-10.469-23.375-23.381-23.375zm310.68 0c-12.911 0-23.379 10.464-23.379 23.375v10c0-12.911 10.467-23.375 23.379-23.375 12.906 0 23.375 10.464 23.375 23.375v-10c0-12.911-10.469-23.375-23.375-23.375z" fill="#fff" opacity=".3"/></svg>
